X: 7
T: Carolan's Welcome
R: waltz
M: 3/4
L: 1/8
K: Amin
cB|:"Am" A2 cd e2 | A2 cd e2 |"G" de dc BA | "Em" G/A/B G2 E2 |
[1 "Am"c3 B A2 |"Dm" d3 c B2 |"Em" c/d/e E2 G2 |"Am" A4 cB :|
[2 "C" g3 f e2 |"Dm" a3 g ed |"Em" ce dc Bc |"Am" A4 ed ||
|: "Am" e2 ab c'2 |"Am" e2 ab c'2 | "F" c'b ag ab | "C" c'2 e2 e2 |
"Dm" f2 afed |"C" e2 ge dc |"Dm" d2 e2 g2 |"Am" a6 |
"F" ag eg a2 |"C" ge de g2 | ed cd ec |"G" d2 B2 G2 |
"Am" c3 B A2 |"Dm" d3 c B2 |"Em" c/d/e E2 G2 |1 "Am" A4 A2 :|2 "Am" A4 cB ||


Tune 1055	Setting 23113

